X: 87
T: Fairly shut of her
T: Longways for as many as will.
%R:
B: Daniel Wright "Wright's Compleat Collection of Celebrated Country Dances" 1740 p.44
S: http://library.efdss.org/cgi-bin/dancebooks.cgi
Z: 2014 John Chambers <jc:trillian.mit.edu>
M: 6/4
L: 1/8
K: Em
% - - - - - - - - - - - - - - - - - - - - - - - - -
[|\
G4E2 G4E2 | G4B2 B2G2E2 | G4E2 G4E2 | F4A2 A2F2D2 |\
G4E2 G4E2 | G4B2 B2G2B2 | c2d2e2 d2B2G2 | F4A2 A2F2D2 |]
[|\
dcBAB2 E2c2E2 | G4B2 B2G2E2 | dcBAB2 E2c2E2 | D4A2 A2F2D2 |\
dcBAB2 E2c2E2 | G4B2 B2G2B2 | c2d2e2 d2B2G2 | F4A2 A2F2D2 |]
[|\
G4g2 g2d2B2 | G4B2 B2G2E2 | G4g2 gfefg2 | F4A2 A2F2D2 |\
G2g2f2 g2d2B2 | G4B2 B2G2B2 | c2d2e2 d2B2G2 | F4A2 A2F2D2 |]
% - - - - - - - - - - - - - - - - - - - - - - - - -
%%begintext align
%% The 1st Man foot to the 2d Wo. and turn hands, the
%% 1st Wo. do the same to the 2d Man .| the 1st Cu.
%% cast off and set again, cast off behind the 3d Cu.
%% and set, then the same to the Top :| the 1st Cu.
%% go the whole Figure with the 2d Cu. then gallop
%% down and up, and cast off in the 3d Cu. Place :+:
%%endtext
% - - - - - - - - - - - - - - - - - - - - - - - - -
%%sep 2 4 300
